rospo-light/22x22/panel/discord-tray-unread.svg

<svg height="22" width="22" xmlns="http://www.w3.org/2000/svg"><path d="m9.175781 5.0000002s-1.9804458-.04304-4.0781248 1.4980469c-2.097678 1.541083-3.0976562 4.7309179-3.0976562 9.3261719 0 0 2.2239914 2.074982 5.4433594 2.175781 0 0 .5395465-.634246.9765625-1.181641-1.849982-.547394-2.5507813-2.185547-2.5507813-2.185547 1.7045245.952865 2.8633264 1.350612 4.6308594 1.367188 1.767533-.01658 3.926335-.414323 5.630859-1.367188 0 0-.700799 1.638153-2.550781 2.185547.437016.547395.976563 1.181641.976563 1.181641 3.219368-.100799 5.443359-2.175781 5.443359-2.175781 0-4.595254-.999978-7.7850889-3.097656-9.3261719-2.097679-1.541087-4.078125-1.4980469-4.078125-1.4980469l-.146485.171875c2.622073.734693 3.816407 2.3730469 3.816407 2.3730469s-.320389-.1718468-.859375-.4023438c-1.634798-.7847672-3.634723-1.1426096-5.134766-1.1425781-1.500043-.0000315-2.4999666.3578109-4.1347656 1.1425781-.5389855.230497-.859375.4023438-.859375.4023438s1.1943322-1.6383539 3.8164066-2.3730469zm-.675781 5.9999998c.838151 0 1.5146.668208 1.5 1.5 0 .831792-.661849 1.5-1.5 1.5-.823442 0-1.5-.668208-1.5-1.5s.661868-1.5 1.5-1.5zm5 0c .838132 0 1.5.668208 1.5 1.5s-.676558 1.5-1.5 1.5c-.838151 0-1.5-.668208-1.5-1.5-.0146-.831792.661849-1.5 1.5-1.5z" fill="#31363b"/><circle cx="20" cy="6" fill="#3daee9" r="2"/></svg>

<svg xmlns="http://www.w3.org/2000/svg" width="22" height="22" version="1.1">
 <defs>
  <style id="current-color-scheme" type="text/css">
   .ColorScheme-Text { color:#31363b; } .ColorScheme-Highlight { color:#3daee9; }
  </style>
 </defs>
 <path style="fill:currentColor" class="ColorScheme-Text" d="m 9.175781,5.0000002 c 0,0 -1.9804458,-0.04304 -4.0781248,1.4980469 C 2.9999782,8.0391301 2,11.228965 2,15.824219 c 0,0 2.2239914,2.074982 5.4433594,2.175781 0,0 0.5395465,-0.634246 0.9765625,-1.181641 C 6.5699399,16.270965 5.8691406,14.632812 5.8691406,14.632812 7.5736651,15.585677 8.732467,15.983424 10.5,16 c 1.767533,-0.01658 3.926335,-0.414323 5.630859,-1.367188 0,0 -0.700799,1.638153 -2.550781,2.185547 C 14.017094,17.365754 14.556641,18 14.556641,18 17.776009,17.899201 20,15.824219 20,15.824219 20,11.228965 19.000022,8.0391301 16.902344,6.4980471 14.804665,4.9569601 12.824219,5.0000002 12.824219,5.0000002 l -0.146485,0.171875 c 2.622073,0.734693 3.816407,2.3730469 3.816407,2.3730469 0,0 -0.320389,-0.1718468 -0.859375,-0.4023438 C 13.999968,6.3578111 12.000043,5.9999687 10.5,6.0000002 8.999957,5.9999687 8.0000334,6.3578111 6.3652344,7.1425783 c -0.5389855,0.230497 -0.859375,0.4023438 -0.859375,0.4023438 0,0 1.1943322,-1.6383539 3.8164066,-2.3730469 z M 8.5,11 c 0.838151,0 1.5146,0.668208 1.5,1.5 C 10,13.331792 9.338151,14 8.5,14 7.676558,14 7,13.331792 7,12.5 7,11.668208 7.661868,11 8.5,11 Z m 5,0 C 14.338132,11 15,11.668208 15,12.5 15,13.331792 14.323442,14 13.5,14 12.661849,14 12,13.331792 12,12.5 11.9854,11.668208 12.661849,11 13.5,11 Z"/>
 <circle style="fill:currentColor" class="ColorScheme-Highlight" cx="20" cy="6" r="2"/>
</svg>
